X: 1
T: Glencolmcille
M: 4/4
L: 1/8
R: reel
K: Dmaj
DB, ||: A,B,DF AFEF | Adcd BAFA | (3Bcd ec dBAF | GEFD EDB,E |
A,B,DF AFEF | Adcd BAFA | (3Bcd ec dBAG |1 FAEF D3B, :|2 FAEF Dz||
 g |: gded cAAg | fdef (3.g.a.g ag | fded cAAF | GBAG FDDg |
fded cAAg | fdef g2fg | afge fded |1 cABc d3g :|2 cABc dBAF||
&quot;1st bar of tune 2nd time through&quot;D3F AFEF||
